src/assets/svg/star.svg

<svg width="23" height="24" viewBox="0 0 23 24" fill="none" xmlns="http://www.w3.org/2000/svg">
<path d="M10.187 3.00224C10.6935 1.86591 12.3064 1.86591 12.8129 3.00224L14.7365 7.31761C14.9454 7.78628 15.3883 8.10805 15.8986 8.16191L20.5971 8.65782C21.8344 8.7884 22.3328 10.3224 21.4086 11.1552L17.8988 14.3182C17.5177 14.6617 17.3485 15.1823 17.455 15.6843L18.4353 20.3062C18.6934 21.5232 17.3885 22.4712 16.3108 21.8496L12.2181 19.4891C11.7736 19.2327 11.2262 19.2327 10.7817 19.4891L6.689 21.8496C5.6113 22.4712 4.30644 21.5232 4.56457 20.3062L5.54488 15.6843C5.65134 15.1823 5.48217 14.6617 5.101 14.3182L1.59126 11.1552C0.667073 10.3224 1.16548 8.7884 2.40272 8.65782L7.10129 8.16191C7.61158 8.10805 8.05447 7.78628 8.26338 7.31761L10.187 3.00224Z" fill="#52CC9F"/>
</svg>

<svg width="23" height="24" fill="none" xmlns="http://www.w3.org/2000/svg"><path d="M10.187 3.002c.507-1.136 2.12-1.136 2.626 0l1.923 4.316c.21.468.652.79 1.163.844l4.698.496c1.237.13 1.736 1.664.812 2.497l-3.51 3.163c-.381.344-.55.864-.444 1.366l.98 4.622c.258 1.217-1.046 2.165-2.124 1.544l-4.093-2.36a1.437 1.437 0 0 0-1.436 0l-4.093 2.36c-1.078.621-2.383-.327-2.124-1.544l.98-4.622a1.437 1.437 0 0 0-.444-1.366l-3.51-3.163c-.924-.833-.426-2.367.812-2.497L7.1 8.162c.51-.054.953-.376 1.162-.844l1.924-4.316z" fill="#52CC9F"/></svg>
